images/EXPERIENCIA-TOGGLE/DESARROLLO WEB ICON.svg

<svg width="31" height="26" viewBox="0 0 31 26" fill="none" xmlns="http://www.w3.org/2000/svg">
<path d="M31 2.47038C31 9.49244 31 16.5152 31 23.5373C30.2959 25.0703 29.1301 25.9893 27.2997 25.99C19.441 25.9934 11.5824 26.0176 3.72447 25.9754C1.34621 25.963 0.0438608 24.5939 0.0423999 22.3389C0.037287 16.2732 0.12932 10.2054 0.00149614 4.14171C-0.0583987 1.28517 1.6844 -0.0258895 4.44394 0.000387022C11.8183 0.0695358 19.1934 0.0543231 26.5678 0.00453595C28.6356 -0.0099853 30.1717 0.600599 31 2.47038ZM1.26148 7.9359C1.18259 8.0666 1.10882 8.1316 1.10809 8.19729C1.09786 13.0011 1.04308 17.8048 1.11685 22.6079C1.14169 24.199 2.15771 24.9216 3.92607 24.9237C11.6591 24.9313 19.3928 24.932 27.1258 24.923C28.9672 24.9209 29.9328 24.114 29.9496 22.368C29.9957 17.679 29.9562 12.9886 29.9445 8.29894C29.9445 8.19452 29.8671 8.09011 29.8058 7.9359C20.2803 7.9359 10.7519 7.9359 1.26148 7.9359ZM29.9679 6.77835C29.9679 5.67336 30.0044 4.6866 29.9599 3.70331C29.8773 1.8923 28.9862 1.0957 27.0659 1.08602C24.6504 1.07427 22.2349 1.08326 19.8194 1.08326C14.5055 1.08326 9.1917 1.07565 3.87786 1.0881C2.16867 1.09225 1.2644 1.79411 1.12051 3.33889C1.01606 4.46118 1.10006 5.59867 1.10006 6.77835C10.7475 6.77835 20.2752 6.77835 29.9679 6.77835Z" fill="white"/>
<path d="M16.9261 11.2618C16.2388 14.3894 15.6135 17.295 14.9386 20.1903C14.8809 20.4378 14.4938 20.6169 14.2593 20.8278C14.1293 20.5499 13.8415 20.2429 13.8926 19.9988C14.5033 17.0904 15.1512 14.1889 15.8385 11.2957C15.8933 11.0661 16.314 10.914 16.5645 10.7259C16.7194 10.9562 16.875 11.1864 16.9261 11.2618Z" fill="white"/>
<path d="M9.80305 15.7392C10.7402 16.5019 11.5802 17.1423 12.3552 17.8469C12.5473 18.0218 12.5283 18.4042 12.6057 18.6919C12.2931 18.6615 11.8928 18.7375 11.6824 18.5826C10.7022 17.8621 9.73512 17.1153 8.85861 16.2869C8.65555 16.0947 8.65482 15.3803 8.85788 15.1902C9.76653 14.339 10.7665 13.5714 11.7737 12.8211C11.952 12.6884 12.3194 12.7838 12.5998 12.7741C12.5538 13.0355 12.6072 13.3958 12.4457 13.5417C11.6371 14.2712 10.7716 14.9447 9.80305 15.7392Z" fill="white"/>
<path d="M21.2283 15.7406C20.3262 15.0007 19.4942 14.359 18.7229 13.6578C18.5191 13.4725 18.5023 13.1019 18.4001 12.8163C18.7397 12.8495 19.1707 12.7692 19.4022 12.9359C20.3576 13.6239 21.2538 14.3853 22.1691 15.1231C22.6767 15.5324 22.6789 15.9453 22.1654 16.3567C21.2173 17.1166 20.2911 17.9029 19.308 18.6192C19.1108 18.7631 18.7017 18.6462 18.3906 18.6497C18.4673 18.3883 18.457 18.0398 18.636 17.8807C19.4438 17.1602 20.3043 16.4936 21.2283 15.7406Z" fill="white"/>
<path d="M10.4014 4.14235C10.2897 5.01432 9.46282 5.60139 8.51254 5.45895C7.56956 5.31719 7.14372 4.7073 7.15248 3.87129C7.16198 3.01039 8.05091 2.37906 8.97636 2.47656C9.82438 2.56714 10.5022 3.3582 10.4014 4.14235Z" fill="white"/>
<path d="M5.39501 3.93548C5.40889 4.81298 4.7515 5.45883 3.83117 5.47128C2.90207 5.48372 2.2235 4.86484 2.20889 3.99218C2.19429 3.11054 2.84363 2.47368 3.772 2.45916C4.70622 2.44463 5.38113 3.05868 5.39501 3.93548Z" fill="white"/>
<path d="M13.7473 2.47583C14.6523 2.47722 15.3433 3.13759 15.3403 3.99711C15.3374 4.84764 14.6289 5.51216 13.7312 5.50801C12.8262 5.50317 12.1323 4.83934 12.1389 3.98328C12.1447 3.13413 12.8489 2.47445 13.7473 2.47583Z" fill="white"/>
</svg>

<svg width="31" height="26" fill="none" xmlns="http://www.w3.org/2000/svg"><path d="M31 2.47v21.067c-.704 1.533-1.87 2.452-3.7 2.453-7.859.003-15.718.028-23.576-.015-2.378-.012-3.68-1.381-3.682-3.636C.037 16.273.13 10.205.002 4.142-.059 1.285 1.683-.026 4.443 0c7.374.07 14.75.054 22.124.005C28.636-.01 30.172.6 31 2.47ZM1.261 7.936c-.078.13-.152.196-.153.261-.01 4.804-.065 9.608.009 14.41.025 1.592 1.04 2.315 2.81 2.317 7.732.007 15.466.008 23.199-.001 1.841-.002 2.807-.809 2.824-2.555.046-4.689.006-9.38-.005-14.07 0-.103-.078-.208-.14-.362H1.262Zm28.707-1.158c0-1.105.036-2.091-.008-3.075-.083-1.81-.974-2.607-2.894-2.617-2.416-.012-4.831-.003-7.247-.003-5.313 0-10.627-.007-15.941.005-1.71.004-2.614.706-2.757 2.25-.105 1.123-.02 2.26-.02 3.44h28.867Z" fill="#fff"/><path d="M16.926 11.262c-.687 3.127-1.312 6.033-1.987 8.928-.058.248-.445.427-.68.638-.13-.278-.418-.585-.366-.83a339.58 339.58 0 0 1 1.945-8.702c.055-.23.476-.382.726-.57l.362.536ZM9.803 15.74c.937.762 1.777 1.402 2.552 2.107.192.175.173.557.25.845-.312-.03-.712.046-.923-.11-.98-.72-1.947-1.467-2.823-2.295-.203-.192-.204-.907-.001-1.097.909-.851 1.909-1.619 2.916-2.369.178-.133.545-.037.826-.047-.046.262.007.622-.154.768-.809.73-1.674 1.403-2.643 2.197ZM21.228 15.74c-.902-.74-1.734-1.381-2.505-2.082-.204-.185-.22-.556-.323-.842.34.034.77-.047 1.002.12.956.688 1.852 1.45 2.767 2.187.508.41.51.822-.004 1.234-.948.76-1.874 1.546-2.857 2.262-.197.144-.606.027-.917.03.076-.26.066-.61.245-.768.808-.72 1.668-1.387 2.592-2.14ZM10.401 4.142c-.111.872-.938 1.46-1.888 1.317-.943-.142-1.37-.752-1.36-1.588.009-.86.898-1.492 1.823-1.394.848.09 1.526.881 1.425 1.665ZM5.395 3.935c.014.878-.643 1.524-1.564 1.536-.929.013-1.607-.606-1.622-1.479-.015-.881.635-1.518 1.563-1.533.934-.014 1.61.6 1.623 1.476ZM13.747 2.476c.905.001 1.596.662 1.593 1.521-.003.85-.711 1.515-1.609 1.511-.905-.005-1.599-.669-1.592-1.525.006-.849.71-1.509 1.608-1.507Z" fill="#fff"/></svg>
